X: 184
T: 5me. ÉTUDE.	 Op. 25
C: Fryderyk Chopin
%%abc-version 2.0
%%abcx-abcm2ps-target-version 5.9.1 (29 Sep 2008)
%%abc-creator hum2abc beta
%%abcx-conversion-date 2021/10/03 11:23:27
%%abc-edited-by Jędrzej Mróz
%%abc-edited-by Emilia Ziętek
%%abc-edited-by Mateusz Mrugas
%%abcx-initial-encoding-date 2018-10-31
%%humdrum-veritas 414443480
%%humdrum-veritas-data 1813834901
%%linebreak <none>
%%barnumbers 0
L: 1/8
M: 3/4
N: Derived from 025-1b-LE-005.krn
P: STUDES POUR LE PIANO
Q: "Vivace." 1/4=144
%%staves {1 2}
V: 1 clef=treble
V: 2 clef=bass
K: G
[V:1] B2 [I:setbarnb 1]| 
[V:2] z2 | 
[V:1] [B^D]<E [eF]<G [g/^A/]B3/ | 
[V:2] !arpeggio![G,2B,,2E,,2]z2!arpeggio![B,2E,2G,,2] | 
[V:1] [gB]<A [f^G]<A [a/c/]B3/ | 
[V:2] !arpeggio![C2E,2A,,2]z2!arpeggio![E2A,2C,2] | 
[V:1] [gB]<A [f^G]<A [g/B/]A3/ | 
[V:2] !arpeggio![^D2A,2B,,2]z2!arpeggio![^D,2B,,,2] | 
[V:1] [fA]<G [eF]<G [d/^G/]A3/ | 
[V:2] !arpeggio![G,2B,,2E,,2]z2!arpeggio![A,2D,2F,,2] | 
[V:1] [dF]<G [g^A]<B [b/^c/]d3/ | 
[V:2] !arpeggio![B,2D,2G,,2]z2!arpeggio![D2G,2B,,2] | 
[V:1] [bd]<c [aB]<c [c'/e/]d3/ | 
[V:2] !arpeggio![E2G,2C,2]z2!arpeggio![G2C2E,2] | 
[V:1] [aB]<c [b^c]<d [g/^A/]B3/ | 
[V:2] !arpeggio![F2A,2D,2]!arpeggio![B,2D,2G,,2]!arpeggio![E2G,2C,2] | 
[V:1] [aB]<c [f^G]<A [g/B/]A3/ | 
[V:2] !arpeggio![A,2C,2F,,2]z2!arpeggio![^D2F,2B,,2] | 
[V:1] [B^D]<E [eF]<G [g/^A/]B3/ | 
[V:2] E,,<G,E,<G,B,,/E,,3/ | 
[V:1] [gB]<A [f^G]<A [a/c/]B3/ | 
[V:2] A,,<CF,<CF,/A,,3/ | 
[V:1] [gB]<A [f^G]<A [g/B/]A3/ | 
[V:2] B,,<^DF,<DA,/B,,3/ | 
[V:1] [fA]<G [e^F]<G [d/E/]=F3/ | 
[V:2] E,<EB,<E^G,,/B,3/ | 
[V:1] [=f^A]<B [b^c]<d [d'/e/]f3/ | 
[V:2] B,,<D D,<=F =F,/^G3/ | 
[V:1] [d'e]<=f [c'^d]<e [c'/^c/]d3/ | 
[V:2] !arpeggio![^G2B,2^G,2C,2]!arpeggio![A2C2A,2C,2]z2 | 
[V:1] [b^c]<d [aB]<=c [d/^G/]A3/ | 
[V:2] x2!accent!D4- & .D,,2z2D,2 | 
[V:1] [d^G]<A [b^c]<d [a/B/]=c3/ | 
[V:2] D2x2x2 & [C2F,2]z2z2 | 
[V:1] [g^A]<B [b^c]<d [b/c/]d3/ | 
[V:2] x2!accent!D4 & .G,,2z2D,2 | 
[V:1] [b^c]<d [d'e]<=f [=c'/^d/]e3/ | 
[V:2] x2D4 & .^G,,2z2D,2 | 
[V:1] [b^c]<d [aB]<c [d/^G/]A3/ | 
[V:2] x2D4 & .A,,2z2[C2F,2D,2] | 
[V:1] [d^G]<A [d^A]<B [d/G/]A3/ | 
[V:2] x2!accent!D4 & .D,,2z2[C2F,2D,2] | 
[V:1] [BF]G [d^A]B [b^c]d | 
[V:2] x2{/E}!accent!D4 & .G,,2z2D,2 | 
[V:1] [b^c]d [d'e]=f [c'^d]e | 
[V:2] x2{/E}!accent!D4 & .^G,,2z2D,2 | 
[V:1] [b^c]d [aB]=c [d^G]A | 
[V:2] x2{/E}!accent!D4 & .A,,2z2[C2F,2D,2] | 
[V:1] [d^G]A [d^A]B [dG]A | 
[V:2] x2{/E}!accent!D4 & .D,,2z2[C2F,2D,2] | 
[V:1] [BF]G [d^A]B [g^c]d | 
[V:2] .G,,2[K:clef=treble][D2B,2][G2D2] | 
[V:1] [bf]g [d'^a]b [g'^c']d' | 
[V:2] [B2G2][d2B2][g2d2] | 
[V:1] [b'^f']g' [g'^c']d' [d'^a]b | 
[V:2] [b2g2]z2z2 | 
[V:1] [bf]g [gc]d [d^A]B | 
[V:2] z6[K:clef=bass] | 
[V:1] {/^D}B2{/F}e2{/^A}g2 & E2G2B2 | 
[V:2] !arpeggio![G,2B,,2E,,2]z2!arpeggio![B,2E,2G,,2] | 
[V:1] {/B}g2{/^G}f2{/c}a2 & A2A2B2 | 
[V:2] !arpeggio![C2E,2A,,2]z2!arpeggio![E2A,2C,2] | 
[V:1] {/B}g2{/^G}f2{/B}g2 & A2A2A2 | 
[V:2] !arpeggio![^D2A,2B,,2]z2!arpeggio![^D,2B,,,2] | 
[V:1] {/A}f2{/F}e2{/^G}d2 & G2G2A2 | 
[V:2] !arpeggio![G,2B,,2E,,2]z2!arpeggio![A,2D,2F,,2] | 
[V:1] {/F}d2{/^A}g2{/^c}b2 & G2B2d2 | 
[V:2] !arpeggio![B,2D,2G,,2]z2!arpeggio![D2G,2B,,2] | 
[V:1] {/d}b2{/B}a2{/e}c'2 & =c2c2d2 | 
[V:2] !arpeggio![E2G,2C,2]z2!arpeggio![G2C2E,2] | 
[V:1] {/B}a2{/^c}b2{/^A}g2 & c2d2B2 | 
[V:2] !accent!!arpeggio!F4!accent!!arpeggio!E2 & [C2D,2]!arpeggio![B,2D,2G,,2][G,2C,2] | 
[V:1] {/B}a2{/^G}f2{/B}g2 & c2A2A2 | 
[V:2] [A,2C,2F,,2]z2[^D2F,2B,,2] | 
[V:1] [B^D]E[eF]G[g^A]B | 
[V:2] E,,G,E,G,B,,E,, | 
[V:1] [gB]A[f^G]A[ac]B | 
[V:2] A,,CF,CF,A,, | 
[V:1] [gB]A[f^G]A[gB]A | 
[V:2] B,,^DF,DA,B,, | 
[V:1] [fA]G[eF]G[dE]=F | 
[V:2] E,EB,E ^G,,B, | 
[V:1] [=f^A]B[b^c]d[d'e]f | 
[V:2] D,=F=F,^G^G,B | 
[V:1] {/[c'ge]}.e''2z2z2 | 
[V:2] {/[GC_B,]}._B,,2z2z2 | 
[V:1] {/[=be=B]}.=b'2z2!fermata!z2 | 
[V:2] {/[EG,=B,,]}.=B,,,2z2!fermata!z2 | 
[V:1] {/[b^dB]}.b'2z2!fermata!z2 |]  
[V:2] {/[^DF,B,,]}.B,,,2z2!fermata!z2 |]  
[V:1]  [K:E] (3B,[BE]G (3B[be]g (3b[b'e']g' [I:setbarnb 46]| 
[V:2]  [K:E] B,4C2 & E,6 | 
[V:1] (3b[b'd']f' (3b[bd]f (3B[BD]F | 
[V:2] C4B,2 & [F,4D,4]x2 | 
[V:1] (3G,[GC]E (3G[gc]e (3a[a'c']e' | 
[V:2] G,2G,2A,2 & [C,2C,,2]x2x2 | 
[V:1] (3a[a'^b]d' (3a[a^B]d (3A[G^B,]D | 
[V:2] A,4G,2 & ^B,,4x2 | 
[V:1] (3G,[EA,]C (3E[eA]c (3e[e'a]c' | 
[V:2] E,2D,2C,2 & A,,2x2x2 | 
[V:1] (3e'[e''g']b' (3e'[b'e']g' (3b[g'b]e' | 
[V:2] B,,2E,2G,2 & E,,4x2 | 
[V:1] x4^^F2 & (3g[d'g]b (3d[bd]g (3^^F[g^A]d | 
[V:2] B,2D2C2 & D,6 | 
[V:1] (3G[gB]d (3D[dG]B (3B,[BD]F | 
[V:2] !arpeggio!B,2^A,2=A,2 & !arpeggio!G,,2x2B,,2- | 
[V:1] (3B,[BE]G (3B[be]g (3b[b'e']g' | 
[V:2] x2B,3C & [G,2B,,2E,,2]x2x2 | 
[V:1] (3b[b'd']f' (3b[bd]f (3B[BD]F | 
[V:2] C4B,2 & [F,4D,4]x2 | 
[V:1] (3G,[GC]E (3G[gc]e (3a[a'c']e' | 
[V:2] x2G,3A, & [C,2C,,2]x2x2 | 
[V:1] (3a[a'^b]d' (3a[a^B]d (3A[G^B,]D | 
[V:2] A,4G,2 & ^B,,6 | 
[V:1] (3G,[CG,]^A, (3E[eG]^A (3e[e'g]a | 
[V:2] E,2D,2C,2 & C,,2x2x2 | 
[V:1] x4(3DE x & (3d[d'g]b (3d[dG]B (3D[cE]^A | 
[V:2] [B,,4B,,,4][C,2C,,2] | 
[V:1] (3C[cD]G (3B,[BD]G (3^A,[AC]^^F & (3CD x (3B,D x (3^A,C x | 
[V:2] [D,4D,,4][D,,,2D,,,,2] | 
[V:1] (3^A,[AC]D (3A,[GB,]D (3G,[GB,]D & (3^A,C x (3A,B, x (3G,B, x | 
[V:2] [G,,6G,,,6] | 
[V:1] (3E,[DF,]C (3E[dF]c (3e[d'f]c' | 
[V:2] [A,,6A,,,6] | 
[V:1] (3e[c'g]b (3e[cG]B (3E[eG]c | 
[V:2] [G,,2G,,,2]>[A,,2A,,,2][G,,2G,,,2] | 
[V:1] (3E[BE]G (3C[B,E,]G, (3B,,[B,D,]A, | 
[V:2] [F,,4F,,,4]B,,,2 | 
[V:1] (3B,,[A,E,]G, (3B,[AE]G (3B[ae]g | 
[V:2] [E,,4E,,,4]z2 | 
[V:1] (3B[dF]c (3e[d'f]c' (3e'[d''f']c'' | 
[V:2] [A,6A,,6] | 
[V:1] (3e'[c''g']b' (3e'[c'g]b (3e[e'g]c' | 
[V:2] [G,2G,,2]>[A,2A,,2][G,2G,,2] | 
[V:1] (3e[be]g (3c[BE]G (3B,[BD]A | 
[V:2] [F,4F,,4]B,,2 | 
[V:1] (3B,[AE]G (3B[ae]g (3B[AE]G | 
[V:2] [E,4E,,4]z2 | 
[V:1] (3=C[GE]F (3B,[GE]F (3A,[GE]F & =C2B,2A,2 | 
[V:2] [A,,2A,,,2][B,,2B,,,2][=C,2=C,,2] | 
[V:1] =c2B2A2 & (3=c[ge]f (3B[ge]f (3A[ge]f | 
[V:2] [A,2A,,2][B,2B,,2][=C2=C,2] | 
[V:1] (3^A[ge]f (3^a[g'e']f' (3a[c''e']f' | 
[V:2] [^C4^C,4][F,2F,,2] | 
[V:1] (3b[b'd']f' (3b[bd]f (3B[BD]F | 
[V:2] [B,4B,,4]z2 | 
[V:1] (3G,[B=D]=F (3!accent!g[b'=d']=f' (3!accent!=g[^a'c']e' | 
[V:2] [B,,2B,,,2][K:clef=treble]!arpeggio![B2=F2=D2G,2]!arpeggio![^A2E2C2=G,2][K:clef=bass] | 
[V:1] (3=g[^a'c']e' (3=g[^ac]e (3F[=a=c]d | 
[V:2] .B,,2[E2C2G,2][D2=C2F,2] | 
[V:1] (3F[a=c]d (3!accent!f[a'=c']d' (3!accent!=f[g'b]=d' | 
[V:2] [B,,2B,,,2][K:clef=treble]!arpeggio![A2D2=C2F,2]!arpeggio![G2=D2B,2=F,2][K:clef=bass] | 
[V:1] (3=f[g'b]=d' (3=f[gB]=d (3E[=gB]c | 
[V:2] .B,,2[=D2B,2=F,2][C2B,2E,2] | 
[V:1] E2F2=G2 & (3E[eB]c (3F[fB]c (3=G[gB]c | 
[V:2] =G,2F,2E,2 & B,,6- | 
[V:1] G2F2E2 & (3G[gB]c (3F[fB]c (3E[eB]c | 
[V:2] E,2B,3E, & B,,6- | 
[V:1] (3E[eB]c (3E[e^A]c (3E[eA]=c & E2E2E2 | 
[V:2] !accent!=G,6 & B,,6- | 
[V:1] (3E[e=A]=c (3D[dA]B (3B,[BD]A & E2D2x2 | 
[V:2] F,4z2 & B,,4x2 | 
[V:1] !accent!B,/[B/E/]G/B/ [b/e/]g/b/[b'/e'/] g'/b/[b'/e'/]g'/ | 
[V:2] E,,2B,2C2 & E,6 | 
[V:1] b/[b'/d'/]f'/b/ [b/d/]f/B/[B/D/] F/B,/[B/D/]F/ & x4x/ !accent!B, x/ | 
[V:2] C4x2 & [F,4D,4]=C,2 | 
[V:1] !accent!G,/[G/C/]E/G/ [g/c/]e/g/[g'/c'/] e'/a/[a'/c'/]e'/ | 
[V:2] E,,2G,2B,3/A,/ & C,6 | 
[V:1] a/[a'/^b/]d'/a/ [a/^B/]d/A/[A/^B,/] D/G,/[G/B,/]D/ | 
[V:2] A,4x/ !accent!G, x/ & ^B,,4z2 | 
[V:1] G,/[E/A,/]C/E/ [e/A/]c/e/[e'/a/] c'/e'/[e''/a'/]c''/ | 
[V:2] E,2D,2C,2 & A,,2x4 | 
[V:1] e'/[e''/g'/]b'/e'/ [b'/e'/]g'/b/[g'/b/] e'/g/[e'/g/]b/ | 
[V:2] B,,2E,2G,2 & E,,6 | 
[V:1] x2x3/ g>^^f x/ & x4d3/d/ | 
[V:2] B,2D2C2 & D,6 | 
[V:1] x2x3/ B>B x/ & x4G3/F/ | 
[V:2] !arpeggio!B,2^A,2=A,2 & [D,2G,,2]x2B,,2- | 
[V:1] B,/[B/E/]G/B/ [b/e/]g/b/[b'/e'/] g'/b/[b'/e'/]g'/ | 
[V:2] [G,2B,,2E,,2]B,2D3/C/ | 
[V:1] b/[b'/d'/]f'/b/ [b/d/]f/B/[B/D/] F/B,/[B/D/]F/ & x4x/ !accent!B, x/ | 
[V:2] C4z2 & [F,4D,4]x2 | 
[V:1] G,/[G/C/]E/G/ [g/c/]e/g/[g'/c'/] e'/a/[a'/c'/]e'/ | 
[V:2] C,,2G,2B,3/A,/ & !accent!C,4x2 | 
[V:1] a/[a'/^b/]d'/a/ [a/^B/]d/A/[A/B,/] D/G,/[^G/B,/]D/ & x4x/ !accent!G, x/ | 
[V:2] A,4z2 & ^B,,4x2 | 
[V:1] G,/[E/A,/]C/E/ [e/A/]c/e/[e'/a/] c'/e'/[e''/a'/]c''/ | 
[V:2] E,2D,2C,2 & A,,2x2x2 | 
[V:1] e'/[e''/g'/]b'/e'/ [b'/e'/]g'/b/[g'/b/] e'/g/[e'/g/]b/ | 
[V:2] B,,2E,2G,2 & E,,4x2 | 
[V:1] e/[b/e/]g/B/ [g/B/]e/G/[e/G/] B/E/[B/E/]G/ | 
[V:2] B,4A,3/G,/ | 
[V:1] B,/[B/E/]G/B,/ [B/E/]G/B,/[B/E/] G/B,/[B/E/]G/ | 
[V:2] G,6- | 
[V:1] B,/[B/E/]G/B,/ [B/E/]G/B,/[B/E/] G/B,/[B/E/]G/ |]  
[V:2] G,6 |]  
[V:1]  [K:G] [BG^D]<E [eBF]<G [g/e/^A/]B3/ [I:setbarnb 99]| 
[V:2]  [K:G] !arpeggio![G,2B,,2E,,2]z2!arpeggio![B,2E,2G,,2] | 
[V:1] [gcB]<A [fc^G]<A [a/f/c/]B3/ | 
[V:2] !arpeggio![C2E,2A,,2]z2!arpeggio![E2A,2C,2] | 
[V:1] [g^dB]<A [fd^G]<A [g/d/B/]A3/ | 
[V:2] !arpeggio![^D2A,2B,,2]z2!arpeggio![^D,2B,,,2] | 
[V:1] [fBA]<G [eBF]<G [d/c/^G/]A3/ | 
[V:2] !arpeggio![G,2B,,2E,,2]z2!arpeggio![A,2D,2F,,2] | 
[V:1] [dBF]<G [gd^A]<B [b/g/^c/]d3/ | 
[V:2] !arpeggio![B,2D,2G,,2]z2!arpeggio![D2G,2B,,2] | 
[V:1] [bed]<c [aeB]<c [c'/a/e/]d3/ | 
[V:2] !arpeggio![E2G,2C,2]z2!arpeggio![G2C2E,2] | 
[V:1] [afB]<c [bf^c]<d [g/e/^A/]B3/ | 
[V:2] !arpeggio![F2C2D,2]!arpeggio![B,2D,2G,,2]!arpeggio![E2G,2C,2] | 
[V:1] [aeB]<c [fe^G]<A [g/^d/B/]A3/ | 
[V:2] !arpeggio![A,2C,2F,,2]z2!arpeggio![^D2F,2B,,2] | 
[V:1] [BG^D]<E [eBF]<G [g/e/^A/]B3/ | 
[V:2] E,,<G,E,<G,B,,/E,,3/ | 
[V:1] [gcB]<A [fc^G]<A [a/f/c/]B3/ | 
[V:2] A,,<CF,<CF,/A,,3/ | 
[V:1] [g^dB]<A [f^d^G]<A [g/d/B/]A3/ | 
[V:2] B,,<^DF,<DA,/B,,3/ | 
[V:1] [fBA]<G [eBF]<G [dBE]=F | 
[V:2] E,<EB,<E ^G,,B, | 
[V:1] [=fd^A]B [bf^c]d [d'be]f | 
[V:2] D,=FF,^G[K:clef=treble]^G,B | 
[V:1] [d'be]=f [c'a^d]e [bgd]e | 
[V:2] [B2=F2D2^G,2][A2E2A,2][=G2E2B,2] | 
[V:1] [bg^d]e [afd]e [bgd]e | 
[V:2] [G2E2B,2][F2E2C2][G2E2B,2] | 
[V:1] [d'a^d]e [c'ad]e [dB^G]A | 
[V:2] [F2E2C2A,2]z2[K:clef=bass][B,2B,,2] | 
[V:1] [eBF]<=G [ge^A]<B [g/e/A/]B3/ | 
[V:2] x2!accent!B,4 & .E,,2z2B,,2 | 
[V:1] [ge^A]<B [=aeB]<c [g/e/A/]B3/ | 
[V:2] x2!accent!B,4 & .B,,,2z2B,,2 | 
[V:1] [g^A]<B [fB^G]<=A [B/A/^E/]F3/ | 
[V:2] x2!accent!B,4 & .^D,,2z2B,,2 | 
[V:1] [BA^E]<F [BAF]<G [B/A/E/]F3/ | 
[V:2] x2!accent!B,4 & .B,,,2z2B,,2 | 
[V:1] [BG^D]E [eBF]G [ge^A]B | 
[V:2] x2{/C}!accent!B,4 & E,,2z2B,,2 | 
[V:1] [ge^A]B [=aeB]c [geA]B | 
[V:2] x2{/C}!accent!B,4 & .B,,,2z2B,,2 | 
[V:1] [g^A]B [fB^G]=A [BA^E]F | 
[V:2] x2{/C}!accent!B,4 & .^D,,2z2B,,2 | 
[V:1] [BA^E]F [BAF]G [BAE]F | 
[V:2] x2{/C}!accent!B,4 & .B,,,2z2B,,2 | 
[V:1] !accent![BG^D]E!accent![eBF]G!accent![ge^A]B | 
[V:2] E,,2[E2G,2E,2][E2G,2D,2] | 
[V:1] !accent![bg^d]e!accent![e'bf]g!accent![g'e'^a]b | 
[V:2] [E2G,2=D,2][E2G,2C,2][E2G,2B,,2] | 
[V:1] {/[f'^c'f]}.e''2z2z2 | 
[V:2] {/!arpeggio![EF,^A,,]}.^A,,,2z2z2 | 
[V:1] z6 | 
[V:2] z6 | 
[V:1] {/[beB]}.b'2z2z2 | 
[V:2] !arpeggio![E2G,2]x4 & !arpeggio!B,,4[A,,2A,,,2] | 
[V:1] z6 | 
[V:2] [G,,4G,,,4][C,2C,,2] | 
[V:1] {/[bfB]}.b'2z2z2 | 
[V:2] !arpeggio!E6 & !arpeggio![F,6B,,6] | 
[V:1] z6 | 
[V:2] ^D4z2 | 
[V:1] {/A}[e6E6]- & !accent!^G6 | 
[V:2] {/^C,}B,,6 & E,,6- | 
[V:1] {/A}[e6E6]- & ^G6 | 
[V:2] {/^C,}B,,6 & E,,6- | 
[V:1] {/A}[e6E6]- & ^G2{/A}G4 | 
[V:2] {/^C,}B,,2{/C,}B,,4 & E,,6- | 
[V:1] {/A}[e6E6]- & ^G2{/A}G4 | 
[V:2] {/^C,}B,,2{/C,}B,,4 & E,,6- | 
[V:1] [e6E6]- & !trill!^G6 | 
[V:2] !trill!B,,6 & E,,6- | 
[V:1] [e6E6]- & !trill!^G6 | 
[V:2] !trill!B,,6 & E,,6- | 
[V:1] [e6E6]- & !trill!^G6 | 
[V:2] !trill!B,,6 & E,,6- | 
[V:1] [e6E6]-{/F2G2B2A2G2} & !trill!^G6 | 
[V:2] !trill!B,,6 & E,,6{/A,,2B,,2^D,2^C,2B,,2} | 
[V:1] !fermata![e6E6]{/E,,4 B,,4 E,4 ^G,4 B,4 E4 ^F4 ^G4 B4 e4 ^f4 ^g4 b4 e'4 ^f'4 !fermata!^g'8} & G6 |]  
[V:2] !fermata!E,,,4x2 |]
